public/images/hashed/d4901046ac2b52564a2656ca3f435fbc.svg

<svg xmlns="http://www.w3.org/2000/svg" width="80" height="80"><defs><linearGradient id="a" x1="0%" x2="100%" y1="100%" y2="0%"><stop offset="0%" stop-color="#1B660F"/><stop offset="100%" stop-color="#6CAE3E"/></linearGradient></defs><g fill="none" fill-rule="evenodd"><path fill="url(#a)" d="M0 0h80v80H0z"/><path fill="#FFF" d="M52.241 40.363a11.407 11.407 0 0 1-2.156 8.522 11.412 11.412 0 0 1-7.551 4.502c-.563.082-1.125.122-1.683.122a11.384 11.384 0 0 1-6.839-2.278 11.407 11.407 0 0 1-4.624-9.139l2-.014a9.426 9.426 0 0 0 3.819 7.549 9.41 9.41 0 0 0 7.038 1.781 9.423 9.423 0 0 0 6.236-3.718 9.42 9.42 0 0 0 1.781-7.038 9.425 9.425 0 0 0-3.717-6.237c-3.563-2.655-8.796-2.272-12.213.581l1.667-.002.002 2-4 .006H32a.997.997 0 0 1-1-1v-3.987h2v1.5a12.378 12.378 0 0 1 5.968-2.733c3.157-.511 6.354.229 8.772 2.032a11.405 11.405 0 0 1 4.501 7.551M54 58a5.06 5.06 0 0 0-1.362.19l-2.837-3.79-1.602 1.199 2.634 3.516A4.78 4.78 0 0 0 49.095 62H30.917c-.2-1.261-.794-2.264-1.679-2.956l2.565-3.448-1.606-1.193-2.808 3.774A6.063 6.063 0 0 0 26 58.005c-.43 0-.832.049-1.217.125l-5.819-19.447a4.26 4.26 0 0 0 2.104-1.542l4.567 1.79.73-1.862-4.507-1.767c.084-.409.142-.837.142-1.302 0-1.096-.264-2.045-.733-2.819l15.084-10.558c.671.675 1.574 1.118 2.649 1.288V27h2v-5.086c1.091-.165 1.996-.6 2.665-1.273L58.694 31.3c-.439.757-.694 1.664-.694 2.7 0 .42.056.843.16 1.259l-4.531 1.812.742 1.857 4.64-1.856a4.663 4.663 0 0 0 2.606 1.749l-7.314 19.204C54.2 58.02 54.105 58 54 58m0 8c-1.963 0-3-1.038-3-3 0-1.878 1.525-3 3-3 1.934 0 3 1.065 3 3 0 1.962-1.037 3-3 3m-28 0c-1.906 0-3-1.094-3-3 0-1.931 1.065-2.995 3-2.995 2.479 0 3 1.629 3 2.995 0 1.934-1.066 3-3 3M14 34c0-1.935 1.065-3 3-3 1.934 0 3 1.065 3 3 0 1.962-1.037 3-3 3-1.99 0-3-1.01-3-3m26-20c1.963 0 3 1.037 3 3 0 1.959-1.037 2.994-3 2.994-1.935 0-3-1.063-3-2.994 0-1.935 1.065-3 3-3m23 17c1.934 0 3 1.065 3 3 0 1.934-1.066 3-3 3-1.948 0-3-1.546-3-3 0-1.907 1.094-3 3-3m5 3c0-3.038-1.963-5-5-5-1.14 0-2.134.295-2.932.822L44.695 18.92A6.025 6.025 0 0 0 45 17c0-3.084-1.916-5-5-5-3.037 0-5 1.962-5 5 0 .699.115 1.334.312 1.908L19.837 29.741C19.059 29.265 18.103 29 17 29c-3.037 0-5 1.962-5 5 0 3.073 1.904 4.985 4.97 4.997l5.959 19.912C21.714 59.766 21 61.184 21 63c0 3.037 1.963 5 5 5 2.687 0 4.527-1.541 4.917-4h18.166c.389 2.459 2.229 4 4.917 4 3.037 0 5-1.963 5-5 0-2.183-1.026-3.796-2.723-4.539l7.435-19.52C66.333 38.651 68 36.789 68 34"/></g></svg>

<?xml version="1.0" encoding="UTF-8"?>
<svg width="80px" height="80px" viewBox="0 0 80 80" version="1.1" xmlns="http://www.w3.org/2000/svg" xmlns:xlink="http://www.w3.org/1999/xlink">
    <!-- Generator: Sketch 64 (93537) - https://sketch.com -->
    <title>Icon-Architecture/64/Arch_AWS-Backup_64</title>
    <desc>Created with Sketch.</desc>
    <defs>
        <linearGradient x1="0%" y1="100%" x2="100%" y2="0%" id="linearGradient-1">
            <stop stop-color="#1B660F" offset="0%"></stop>
            <stop stop-color="#6CAE3E" offset="100%"></stop>
        </linearGradient>
    </defs>
    <g id="Icon-Architecture/64/Arch_AWS-Backup_64" stroke="none" stroke-width="1" fill="none" fill-rule="evenodd">
        <g id="Icon-Architecture-BG/64/Storage" fill="url(#linearGradient-1)">
            <rect id="Rectangle" x="0" y="0" width="80" height="80"></rect>
        </g>
        <path d="M52.241,40.363 C52.684,43.399 51.919,46.425 50.085,48.885 C48.252,51.345 45.569,52.944 42.534,53.387 C41.971,53.469 41.409,53.509001 40.851,53.509001 C38.395,53.51 36.015,52.725 34.012,51.231 C31.099,49.06 29.414,45.729 29.388,42.092 L31.388,42.078 C31.41,45.082 32.802,47.834 35.207,49.627 C37.238,51.142 39.734,51.775 42.245,51.408 C44.752,51.042 46.967,49.722 48.481,47.69 C49.996,45.658 50.628,43.159 50.262,40.652 C49.896,38.144 48.576,35.929 46.545,34.415 C42.982,31.76 37.749,32.143 34.332,34.996 L35.999,34.994 L36.001,36.994 L32.001,37 L32,37 C31.735,37 31.48,36.895 31.293,36.707 C31.105,36.52 31,36.265 31,36 L31,32.013 L33,32.013 L33,33.513 C34.667,32.11 36.739,31.141 38.968,30.78 C42.125,30.269 45.322,31.009 47.74,32.812 C50.2,34.645 51.799,37.327 52.241,40.363 M54,58 C53.544,58 53.084,58.065 52.638,58.19 L49.801,54.4 L48.199,55.599 L50.833,59.115 C49.975,59.798 49.327,60.774 49.095,62 L30.917,62 C30.717,60.739 30.123,59.736 29.238,59.044 L31.803,55.596 L30.197,54.403 L27.389,58.177 C26.954,58.076 26.498,58.005 26,58.005 C25.57,58.005 25.168,58.054 24.783,58.13 L18.964,38.683 C19.848,38.379 20.554,37.85 21.068,37.141 L25.635,38.931 L26.365,37.069 L21.858,35.302 C21.942,34.893 22,34.465 22,34 C22,32.904 21.736,31.955 21.267,31.181 L36.351,20.623 C37.022,21.298 37.925,21.741 39,21.911 L39,27 L41,27 L41,21.914 C42.091,21.749 42.996,21.314 43.665,20.641 L58.694,31.3 C58.255,32.057 58,32.964 58,34 C58,34.42 58.056,34.843 58.16,35.259 L53.629,37.071 L54.371,38.928 L59.011,37.072 C59.617,37.889 60.493,38.529 61.617,38.821 L54.303,58.025 C54.2,58.02 54.105,58 54,58 M54,66 C52.037,66 51,64.962 51,63 C51,61.122 52.525,60 54,60 C55.934,60 57,61.065 57,63 C57,64.962 55.963,66 54,66 M26,66 C24.094,66 23,64.906 23,63 C23,61.069 24.065,60.005 26,60.005 C28.479,60.005 29,61.634 29,63 C29,64.934 27.934,66 26,66 M14,34 C14,32.065 15.065,31 17,31 C18.934,31 20,32.065 20,34 C20,35.962 18.963,37 17,37 C15.01,37 14,35.99 14,34 M40,14 C41.963,14 43,15.037 43,17 C43,18.959 41.963,19.994 40,19.994 C38.065,19.994 37,18.931 37,17 C37,15.065 38.065,14 40,14 M63,31 C64.934,31 66,32.065 66,34 C66,35.934 64.934,37 63,37 C61.052,37 60,35.454 60,34 C60,32.093 61.094,31 63,31 M68,34 C68,30.962 66.037,29 63,29 C61.86,29 60.866,29.295 60.068,29.822 L44.695,18.92 C44.887,18.344 45,17.707 45,17 C45,13.916 43.084,12 40,12 C36.963,12 35,13.962 35,17 C35,17.699 35.115,18.334 35.312,18.908 L19.837,29.741 C19.059,29.265 18.103,29 17,29 C13.963,29 12,30.962 12,34 C12,37.073 13.904,38.985 16.97,38.997 L22.929,58.909 C21.714,59.766 21,61.184 21,63 C21,66.037 22.963,68 26,68 C28.687,68 30.527,66.459 30.917,64 L49.083,64 C49.472,66.459 51.312,68 54,68 C57.037,68 59,66.037 59,63 C59,60.817 57.974,59.204 56.277,58.461 L63.712,38.941 C66.333,38.651 68,36.789 68,34" id="AWS-Backup_Icon_64_Squid" fill="#FFFFFF"></path>
    </g>
</svg>
